X: 27583
T: Monsignor's Blessing, The
R: reel
M: 4/4
K: Gmajor
B2BG ADD2|GABG AD D/D/D|GBAB G/A/G ge|dBAc BGGA|
B2BG ADDD|GABG AD D/D/D|GBAB G2ge|dBAc BGG2||
gfgb afdg|e/f/g dg egdf|gfgb afdg|e/f/g af g3d|
gfgb afdg|e/f/g dg egdf|gfgb a2ag|fgaf gedc||

